X:880
M:C|
L:1/8
K:E Minor
f|gfef gebe|gebe geef|defg adfd|ABAG FDDF|G2BG F2AF|Eeef gefd|

